X:1
T:At Calvary
T:At Calvary
T:Daniel Brink Towner
T:William Reed Newell, 1895
T:Public Domain Courtesy of the Cyber Hymnal™
C:Daniel Brink Towner
Z:Public Domain
Z:Courtesy of the Cyber Hymnal™
%%score 1 ( 2 3 )
L:1/8
Q:1/4=110
M:4/4
K:C
V:1 treble 
V:2 bass 
V:3 bass 
V:1
 [EG]3 [EG] [EG]>[DF] [CE]>[DF] | [EG]2 [FA]2 [EG]4 | [FB]3 [FB] [FB]>[FA] [EG]>[DF] | %3
w: 1.~Years I spent in van- i-|ty and pride,|Car- ing not my Lord was|
w: 2.~By God’s Word at last my|sin I learned;|Then I trem- bled at the|
w: 3.~Now I’ve given to Je- sus|ev- ery- thing,|Now I glad- ly own Him|
w: 4.~Oh, the love that drew sal-|va- tion’s plan!|Oh, the grace that brought it|
 [CE]2 [FA]2 [EG]4 | [EG]3 [EG] [EG]>[DF] [CE]>[DF] | [EG]2 [FA]2 [EG]2 [Gc]2 | [Fd]4 [FB]4 | %7
w: cru- ci- fied,|Know- ing not it was for|me He died on|Cal- va-|
w: law I’d spurned,|Till my guilt- y soul im-|plor- ing turned to|Cal- va-|
w: as my king,|Now my rap- tured soul can|on- ly sing of|Cal- va-|
w: down to man!|Oh, the might- y gulf that|God did span at|Cal- va-|
 [Ec]8 ||"^Refrain" [Ac]3 [^GB] [Ac]>[GB] [Ac]>[FA] | [FA]2 [EG]2 [EG]4 | %10
w: ry.|||
w: ry.|||
w: ry!|||
w: ry!|||
 [FB]3 [FA] [FB]>[FA] [FB]>[FA] | [EG]2 [Ec]2 [Ec]4 | [Ac]3 [^GB] [Ac]>[GB] [Ac]>[FA] | %13
w: |||
w: |||
w: |||
w: |||
 [FA]2 [EG]2 [EG]2 [Gc]2 | [Fd]4 [FB]4 | [Ec]8 |] %16
w: |||
w: |||
w: |||
w: |||
V:2
 [C,C]3 [C,C] [C,C]>[C,C][C,G,]>[C,G,] | [C,C]2 [C,C]2 [C,C]4 | [G,D]3 [G,D] [G,D]>[G,B,][G,C]>G, | %3
w: ~ ~ ~ ~ ~ ~|~ ~ ~|~ ~ ~ ~ ~ ~|
 [C,G,]2 [C,C]2 [C,C]4 | [C,C]3 [C,C] [C,C]>[C,C][C,G,]>[C,G,] | [C,C]2 [C,C]2 [C,C]2 [E,C]2 | %6
w: ~ ~ ~|~ ~ ~ ~ ~ ~|~ ~ ~ ~|
 [F,A,]4 G,4 | [C,G,]8 || [F,C]3 [F,C] [F,C]>[F,C][F,C]>[F,C] | [C,C]2 [C,C]2 [C,C]4 | %10
w: ~ ~|~|Mer- cy there was great, and|grace was free;|
 [G,D]3 [G,D] [G,D]>[G,D][G,D]>[G,B,] | [C,C]2 [C,G,]2 [C,G,]4 | F,3 F, F,>F,F,>[F,C] | %13
w: Par- don there was mul- ti-|plied to me;|There my bur- dened soul found|
 [C,C]2 [C,C]2 [C,C]2 [E,C]2 | [F,A,]4 G,4 | [C,G,]8 |] %16
w: lib- er- ty at|Cal- va-|ry.|
V:3
 x8 | x8 | x8 | x8 | x8 | x8 | x4 G,4 | x8 || x8 | x8 | x8 | x8 | F,3 F, F,>F,F,3/2 x/ | x8 | %14
 x4 G,4 | x8 |] %16

